X:485
T:Rakes of Mallow #2, The
C:Joe Buchanan's Scottish Tome - Page 167.3
I:167 3
Z:Carl Allison
R:Polka
L:1/4
M:4/4
K:G
"G"G B "G/B"G B | "G"G B "G/B"c/B/A/G/ | "D7"F A "D7/F#"F A | "D7"F A "D7/F#"d/c/B/A/ |
"G"G B "G/B"G B | "G"G B "E7"d > B | "Am"c/B/A/G/ "D7"F/G/A/c/ | "G"B "C"G "G"G2 :|
"G"g f/e/ d c | "G"B c d2 | "G"g f/e/ "Em"d c | "Am"B g "D7"A2 |
"G"g f/e/ d c | "G"B c "E7"d > B | "Am"c/B/A/G/ "D7"F/G/A/c/ | "G"B "C"G "G"G2 :|

